!!!XEN: First song
!!!AGN: Mide' (Grand Medicine) initiation song of the sixth degree
!!!COM: Anonymous
!!!CNT: Native American -- Ojibway
!!!TXO: Ojibway
!!!MLC: recorded in Washington, D.C., but the singer lived on the Bois Fort reservation, northern Minnesota, U.S.A.
!!!MRD: 1907-1909///
!!!MPN: De'bwawen'dunk ("Eating noisily")
**kern
*MM144
*Imale
*k[b-]
*clefF4
*M2/4
*>[A,B,B]
*>A
8c
8c
=1
4c
8.c
16A
=2
4.c
8c
=3
*M3/4
4.c
8c
4c
=4
4.c
8c
4c
=5
4.A
8A
8A
8F
=6
4.F
8F
[4F
=7
*M2/4
4F]
8c
8c
=8
*M3/4
4A
8.A
16F
8.A
16A
=9
4.A
8A
4A
=10
*M2/4
2A
*>B
=!:11
*M3/4
4A
4A
8A
8F
=12
4.F
8F
[4F
=13
*M2/4
4F]
8A
8A
=14
4F
8.F
16D
=15
4.F
8F
=16
2F
=17
4.F
8F
=18
4D
4D
=19
*M3/4
4.C
8C
[4C
=20
*M2/4
4C]
8C
8C
=21
4C
8C
8AA
=22
4C
4C
=23
4.C
8C
=24
4AA
4AA
=25
4.FF
8FF
=26
4FF
8c
8c
=27
4c
8.c
16A
=28
4.c
8c
=29
*M3/4
4.c
8c
4c
=30
4.c
8c
4c
=31
4A
4A
8A
8F
=32
4.F
8F
[4F
=33
*M2/4
4F]
8c
8c
=34
*M3/4
4A
8.A
16F
8.A
16A
=35
4.A
8A
4A
=36
*M2/4
2A
=:!
*-
!!!OCL: Frances Densmore
!!!YOR: Chippewa [i.e., Ojibway] Music, Bulletin 45 of the Bureau of American Ethnology, Smitsonian Institution
!!!ONM: 16
!!!PPG: 56
!!!PUB: published
!!!PPR: Government Printing Office
!!!PPP: Washington, D.C.
!!!PDT: 1909///
!!!EST: missing clef changes, text, drum tempo, and drum part
!!!YEC: Copyright 1998 Paul von Hippel
!!!YEM: Rights to all derivate electronic formats reserved.
!!!EFL: 3/42
